X: 62
T:Droneless
M:6/8
L:1/8
C:Lawrence Morgan-Anstee (Eel Grinders)
R:Jig
N:original in Dm
Z:Steve Mansfield
K:Gm
g3 gfd | f3 f2g | f3 f2g | edc c3 | g3 gfd |1 a3 a2b | a3 agf |
g2d d2d :|2 a2d f2g | a2d f2g | g3-g3 |: dga bag | eba bag |
cag agf | dag a3 | dga bag | dfd bdf | cfg agf |1 g3-g3 :|2 g2d d2d ||
<end>
<start>
